media/other/arrow.svg

<svg height="53" viewBox="0 0 1065 53" width="1065" xmlns="http://www.w3.org/2000/svg" xmlns:xlink="http://www.w3.org/1999/xlink"><linearGradient id="a" x1="166.426691%" x2="-98.522562%" y1="50.163479%" y2="49.81691%"><stop offset="0" stop-color="#ffa135"/><stop offset="1" stop-color="#e91ca1"/></linearGradient><path d="m1012 705v-10.81966c0-5.522848 4.47715-10 10-10 1.55245 0 3.08358.361451 4.47214 1.055728l32.63932 16.31966c4.93978 2.469893 6.94202 8.476623 4.47213 13.416408-.96763 1.935274-2.53686 3.504499-4.47213 4.472136l-32.63932 16.31966c-4.93979 2.469893-10.94652.467649-13.41641-4.472136-.69428-1.388554-1.05573-2.919685-1.05573-4.472136v-10.81966h-1086v-11z" fill="url(#a)" fill-rule="evenodd" transform="translate(0 -684)"/></svg>

<?xml version="1.0" encoding="UTF-8"?>
<svg width="1065px" height="53px" viewBox="0 0 1065 53" version="1.1" xmlns="http://www.w3.org/2000/svg" xmlns:xlink="http://www.w3.org/1999/xlink">
    <!-- Generator: Sketch 53 (72520) - https://sketchapp.com -->
    <title>Combined Shape</title>
    <desc>Created with Sketch.</desc>
    <defs>
        <linearGradient x1="166.426691%" y1="50.1634787%" x2="-98.522562%" y2="49.8169095%" id="linearGradient-1">
            <stop stop-color="#FFA135" offset="0%"></stop>
            <stop stop-color="#E91CA1" offset="100%"></stop>
        </linearGradient>
    </defs>
    <g id="Page-1" stroke="none" stroke-width="1" fill="none" fill-rule="evenodd">
        <g id="Stories-|-Light" transform="translate(0.000000, -684.000000)" fill="url(#linearGradient-1)">
            <path d="M1012,705 L1012,694.18034 C1012,688.657492 1016.47715,684.18034 1022,684.18034 C1023.55245,684.18034 1025.08358,684.541791 1026.47214,685.236068 L1059.11146,701.555728 C1064.05124,704.025621 1066.05348,710.032351 1063.58359,714.972136 C1062.61596,716.90741 1061.04673,718.476635 1059.11146,719.444272 L1026.47214,735.763932 C1021.53235,738.233825 1015.52562,736.231581 1013.05573,731.291796 C1012.36145,729.903242 1012,728.372111 1012,726.81966 L1012,716 L-74,716 L-74,705 L1012,705 Z" id="Combined-Shape"></path>
        </g>
    </g>
</svg>
